X:244
T:Did You Think To Pray?
%%stretchlast false
M:4/4
L:1/4
K:C clef=C1
"^iii¹"[G,E]3/2 [G,E]/ "^IV¹"[A,F]/ "^iii¹"[G,E]/ "^ii¹"[F,D]/ "^I¹"[E,C]/ | "^iii"[E,G,]2 "^I¹"[E,C]2 | "^v"[G,D]3/2 [G,D]/ "^v7"[G,F] "^iii¹"[G,E] | "^v"[G,D]4 | [G,D]3/2 [G,D]/ [G,D]/ [G,D]/ "^i"[G,C]/ "^v"[G,D]/ | "^iii¹"[G,E]2 "^iii"[E,G]2 | "^iii¹"[G,E]3/2 [G,E]/ "^IV¹"[A,F]/ "^iii¹"[G,E]/ "^ii¹"[F,D]/ "^I¹"[E,C]/ | "^IV"[F,A,]2 "^iv"[F,C]2 | "^vii¹"[D,B,]3/2 "^I¹"[E,C]/ "^ii¹"[F,D]3/2 "^iii¹"[G,E]/ | "^I¹"[E,C]4 | "^v"[G,G]3/2 "^i"[CG]/ "^vi¹"[CA]/ "^i"[CG]/ "^♯iv°"[C^F]/ "^i"[CG]/ | [G,c]2 [CG]2 | "^iii¹"[G,E]3/2 "^i"[CG]/ "^vi¹"[CA]/ "^i"[CG]/ "^v7"[G,F]/ "^iii¹"[G,E]/ | "^v"[G,D]4 | "^iii¹"[G,E]3/2 [G,E]/ "^IV¹"[A,F]/ "^iii¹"[G,E]/ "^ii¹"[F,D]/ "^I¹"[E,C]/ | "^IV"[F,A,]2 "^iv"[F,C]2 | "^vii¹"[D,B,]3/2 "^I¹"[E,C]/ "^ii¹"[F,D]3/2 "^iii¹"[G,E]/ | "^I¹"[E,C]4 |]
